X: 34
T:John Dwyer's
M:4/4
L:1/8
S:Dan Cummins and Bev Buchannan
R:reel
K:G
dB~B2 GEDE|GB~B2 dBGB|A3 B AGED|EGAB c2 Bc|
dB~B2 GEDE|GB~B2 dBGA|~B3A BedB|1AGAB G2 ge:|2AGAB G2 ga||
bg~g2 bg~g2|af~f2 af~f2|bg~g2 bgag|eaag ~a2ga|
bg~g2 ageg|~g3e dBGA|~B3A BedB|1AGAB G2 ga:|2AGAB G2 ge|

